X: 29
T: O Holy Night
P: piffero primo c0053
O: Adolphe Adam
%R: march
F: http://ancients.sudburymuster.org/mus/col/pdf/carolsF.pdf
Z: 2020 John Chambers <jc:trillian.mit.edu>
M: 6/8
L: 1/8
K: D
% - - - - - - - - - -
[|\
F3 F2F | A3- A2A | B2B G2B | d6 | A2A F2D | D3 F2G | A3 G2E | D6- | D6 | F3 F2F | A3 A2A |
B2B G2B | d6 | A2A ^G2F | c3 A2B | c3 d2c | F6 | z3 z2A | A3 B3 | E3 A3 | B2A d2F | B3 A2A |
A3 B3 | E3 A3 | B2A d2F | A6 | d6- | d3 c2B | c6- | c3 z2c | e6 | e2B B2B | d6 | d3 z2d | f6 | e3- e2A |
d6- | d3 c2B | A6- | A2A B2A | A6- | A2 z2d | e6- | e3- e2A | f6- | f3 e3 | d6- | d2c d2e | d6- | d6 |]
% - - - - - - - - - -


